X:1
T:Yuri!!! on Ice
T:Yuri!!! on Ice
T:Taru Omebayashi and Taku Matsushiba
T:Arranged by: Cayden Gamber
C:Taru Omebayashi and Taku Matsushiba (PIANO)
Z:Arranged by TheMoonChild
%%score { ( 1 2 ) | 3 }
L:1/8
Q:1/4=160
M:4/4
K:Eb
V:1 treble nm="Piano" snm="Pno."
V:2 treble 
V:3 bass 
V:1
|:"^A" (6:4:6c"^Maestoso e elegante"GABde (6:4:6z GABde | (6:4:6z GABde (6:4:6z GABde | %2
 (6:4:6z GABde (6:4:6z GABde | (6:4:6z GABde (6:4:6z GABde | (6:4:6FGABde (6:4:6z GABde | %5
 (6:4:6z GABde (6:4:6z GABde | (6:4:6z GABde (6:4:6z GABde |1 (6:4:6z GABde (6:4:6z GABde :|2 %8
!<(! [bb']8!<)! ||"^B" (6:4:6z GABde (6:4:6z GABde | (6:4:6z GABde (6:4:6z GABde | %11
 (6:4:6z GABde (6:4:6z GABde | (6:4:6z GABde (6:4:6z GABde | (6:4:6z GABde (6:4:6EGABde | %14
 (6:4:6EGABde (6:4:6EGABde | (6:4:6z GABde (6:4:6CGABde | (6:4:6z DEGBd (6:4:6edBGFE |: %17
"^C" (6:4:6z GBcBc (6:4:6cBccBc | (6:4:6z FGBGB (6:4:6BGBBGB | (6:4:6z EGBEB (6:4:6BEBBEB | %20
 (6:4:6z DFBDB (6:4:6BDBBDB :|"^D" (6:4:6z degbc'- (6:4:5c'2 egbc' | (6:4:6FGBdef (6:4:6FGBdef | %23
 (6:4:6FGBdef (6:4:6B,DEFGB | (6:4:6DEGBcd (6:4:6DEGcde | (6:4:6Bdegbc' (6:4:6bgfedB | %26
 (6:4:6FBcefg (6:4:6fdBgdB | (6:4:6FBcefg (6:4:6fdBdBG | (6:4:6e'd'bgfe (6:4:6BGFEB,G, |: %29
"^E" (6:4:6z G.g z Bb (6:4:6z cc' z Gg | (6:4:6z F.f z Ee (6:4:6z Ff z Fg | %31
 (6:4:6z F.f z Ee (6:4:6z Ff z Gg |1 (6:4:6z B.b z dd' (6:4:6z Bb z Gg :|2 %33
 (6:4:6z d.d' z ee' (6:4:6z dd' z Bb ||"^F" (6:4:6z EGceg (6:4:6z EGceg | %35
 (6:4:6z B,FBde (6:4:6fdBFDB, | (6:4:6z CEGce (6:4:6z CEGce | (6:4:6z B,DEFB (6:4:6dBFEDB, | %38
 (6:4:6z EGceg (6:4:6z EGceg | (6:4:6z B,FBde (6:4:6fdBFDB, | (6:4:6z CEGce (6:4:6z CEGce | %41
 (6:4:6z Bdefb (6:4:6d'bfedB |"^G" z4!8va(! (6:4:6be'g'b'd''e'' | %43
 (3g''2 b2 d'2!8va)! (3e4 [Bb][Bb] | [Bb]4 e'4 | (6:4:6e''d''b'g'e'd' z4 | %46
 g2 e'2 (6:4:4b3 d'g'e'' |!8va(! (3g''2 b2 d'2 (3e'4 [bb'][bb']!8va)! | [Bb]4 [ee']4 | %49
 (6:4:6e''d''b'g'e'd' z4 |"^H" z8 |"^Dolce, tristamente" [Gb]8 | [de]8 | [eb]8 | F8 | [eb]8 | %56
 [FB]8 | [eb]8 | [eg]4 e4 | [Bb]4 [ee']4 | f4 e4 | f4 g4 | e4 d4 | e4 f4 | e4 d4 | e4 b4 | %66
 (6:4:6z cdbeb (6:4:6Acdbeb | (6:4:6z cdbeb (6:4:6Acdbeb | (6:4:6z GAfBf (6:4:6FGAfBf | %69
 (6:4:6z GAfBf (6:4:6FGAfBf | (6:4:6z GAede (6:4:6EGAede | (6:4:6z GAede (6:4:6EGAede | %72
 (6:4:6z DGdBd (6:4:6FEDdBd | (6:4:6z DGdBd (6:4:6BEDeBe | (6:4:6z cdbeb (6:4:6Acdbeb | %75
 (6:4:6z cdbeb (6:4:6Acdbeb | (6:4:6z GAfBf (6:4:6FGAfBf | (6:4:6z GAfBf (6:4:6FGAfBf | %78
 (6:4:6z GAede (6:4:6EGAede | (6:4:6z GAede (6:4:6EGAede | (6:4:6z DGdBd (6:4:6FEDdBd | %81
 (6:4:6z DGdBd (6:4:6BEDeBe |"^I" (3[ceg]2 [ceg]2 [ceg]2 (3[ceg]2 [ceg]2 [ceg]2 | %83
 (3[Bdf]2 [Bdf]2 [Bdf]2 (3[Bdf]2 [ce]2 [Bdf]2 | (3[Gce]2 [Gce]2 [Gce]2 (3[Gce]2 [Gce]2 [Gce]2 | %85
 (3[GBd]2 [GBd]2 [GBd]2 (3[GBd]2 [Gce]2 [Bdf]2 | (3[ceg]2 [ceg]2 [ceg]2 (3[ceg]2 [ceg]2 [ceg]2 | %87
 (3[Bdf]2 [Bdf]2 [Bdf]2 (3[Bdf]2 [ce]2 [Bdf]2 | (3[Gce]2 [Gce]2 [Gce]2 (3[Gce]2 [Gce]2 [Gce]2 | %89
 (3[GBd]2 [GBd]2 [GBd]2 (3[GBd]2 [Gce]2 [Bdf]2 | (3[ceg]2 [ceg]2 [ceg]2 (3[ceg]2 [ceb]2 [ceb]2 | %91
 (3[Bdf]2 [Bdf]2 [Bdf]2 (3[Bdf]2 [Bdb]2 [Bdb]2 | (3[Gce]2 [Gce]2 [Gce]2 (6:4:5d2 ded'f' | %93
 (6:4:6e'd'bgfe (6:4:6dfgbd'f' |"^J" (6:4:5z2 e[Gcg]e[Gcg] (6:4:5z2 d[FBf]d[FBf]!ff! | %95
 (6:4:5z2 c[Ece]c[Ece] (6:4:5z2 B[DFd]B[DFd] | (6:4:5z2 G[cgc']G[cgc'] (6:4:5z2 G[Bgb]G[Bgb] | %97
 (6:4:5z2 B[Fdf]B[Fdf] (6:4:5z2 B[FBe]B[FBe] | (6:4:5z2 e[Gcg]e[Gcg] (6:4:5z2 d[FBf]d[FBf] | %99
 (6:4:5z2 c[Ece]c[Ece] (6:4:5z2 B[DFd]B[DFd] | (6:4:5z2 G[cgc']G[cgc'] (6:4:6EGBegb | %101
 (6:4:6e'd'bged (6:4:6BGEDB,G, | (6:4:5z2 e[gc'g']e[gc'g'] (6:4:5z2 d[fbf']d[fbf']!ff! | %103
 (6:4:5z2 c[ec'e']c[ec'e'] (6:4:4z [dfb]2 [ege']2 [fbf'] | %104
 (6:4:5z2 G[cgc']G[cgc'] (6:4:5z2 G[Bgb]G[Bgb] | %105
 (6:4:5z2 B[Fdf]B[Fdf] (6:4:4z [FBd]2 [ege']2 [Bdb] | %106
 (6:4:5z2 e[gc'g']e[gc'g'] (6:4:5z2 d[fbf']d[fbf'] | %107
 (6:4:5z2 c[ec'e']c[ec'e'] (6:4:4z [dfb]2 [ege']2 [FBf] | (6:4:5z2 G[cgc']G[cgc'] (6:4:6egbe'g'b' | %109
 (6:4:6e''d''b'g'e'd' (6:4:6bgedBG | (6:4:5z2 e[bd'b']e[bd'b'] (6:4:5z2 e[e'a']e[e'a'] | %111
 (6:4:5z2 e[ac'e']e[ac'e'] (6:4:5z2 f[bf']f[bf'] | %112
 (6:4:5z2 e[ae'g']e[ae'g'] (6:4:5z2 f[d'f'b']f[d'f'b'] | (6:4:5z2 d[fd'f']d[fd'f'] (6:4:6z defgb | %114
 (6:4:5z2 e[bd'b']e[bd'b'] (6:4:5z2 e[e'a']e[e'a'] | %115
 (6:4:5z2 e[ac'e']e[ac'e'] (6:4:5z2 f[bf']f[bf'] | (6:4:5z2 e[ae'g']e[ae'g'] (6:4:6egbe'g'b' | %117
 (6:4:6e''d''b'g'e'd' (6:4:6bgedBG | (6:4:6z GABde (6:4:6z GABde | (6:4:6z GABde (6:4:6z GABde | %120
[Q:1/4=120] (6:4:6z GABde (6:4:6z GABde |[Q:1/4=80] (6:4:6z GABde- e4 |] %122
V:2
|: g8- | g8 | f8- | f8 | e8- | e8 | x8 |1 x8 :|2 x8 || z8 | z8 | z8 | z8 | z4 a4 | z4 g4 | z4 f4 | %16
 z4 z4 |: z2 g2 [gb]2 g2 | z2 f2 [fb]2 f2 | z2 e2 [eb]2 e2 | z2 d2 [db]2 d2 :| x8 | z4 z4 | z4 x4 | %24
 x8 | x8 | x8 | x8 | x8 |: x8 | x8 | x8 |1 x8 :|2 x8 || x8 | x8 | x8 | x8 | x8 | x8 | x8 | x8 | %42
 x4!8va(! x4 | x4!8va)! x4 | x8 | x8 | x8 |!8va(! x8!8va)! | x8 | x8 | x8 | x8 | x8 | x8 | x8 | %55
 x8 | x8 | x8 | x8 | x8 | x8 | x8 | x8 | x8 | x8 | x8 | x8 | x8 | x8 | x8 | x8 | x8 | x8 | x8 | %74
 x4 b'4 | x4 b'4 | x4 f'4 | x4 f'4 | x4 b'4 | x4 b'4 | x4 e'4 | x4 e'4 | x8 | x8 | x8 | x8 | x8 | %87
 x8 | x8 | x8 | x8 | x8 | x8 | x8 | x8 | x8 | x8 | x8 | x8 | x8 | x8 | x8 | x8 | x8 | x8 | x8 | %106
 x8 | x8 | x8 | x8 | x8 | x8 | x8 | x8 | x8 | x8 | x8 | x8 | x8 | x8 | x8 | x8 |] %122
V:3
|:!ped! A,4 A,4 | A,4 A,4 | B,4 B,4 | B,4 B,4 | C4 C4 | C4 C4 | G,4 G,4 |1 G,4 G,4 :|2 G,8 || %9
 [E,,E,]4 E4 | E4 E4 | E4 E4 | E4 E4 | E,,8- | E,,8 | C8 | A,8 |: .[A,,A,]2 A,,4 z2 | [B,,B,]8 | %19
 [C,C]8 | [G,,G,]8 :| A,4 A,4 | B,4 B,4 | C,4 C,4 | G,,4 G,,4 | A,4 A,4 | B,4 B,4 | C,4 C,4 | %28
 G,,4 G,,4!ped-up! |: .A,2 .A,2 .A,2 .A,2 | .B,2 .B,2 .B,2 .B,2 | .C,2 .C,2 .C,2 .C,2 |1 %32
 .G,,2 .G,,2 .G,,2 .G,,2 :|2 .G,,2 .G,,2 .G,,2 .G,,2 ||!ped! C4 C4 | F,4 F,4 | C,4 C,4 | %37
 G,,4 G,,4 | C4 C4 | F,4 F,4 | C,4 C,4 | D,4 D,4 |[K:treble] (6:4:6dB,EGBe z4 | %43
 (6:4:6ADEGB,D (6:4:6EGBdeg | (6:4:6A,DEGAc (6:4:6gedBGE | [B,B]4 (6:4:6bgedBG | %46
 (6:4:6A,DEGAB (6:4:6A,DEGAB | (6:4:6B,DEGAB (6:4:6EGBdeg | (6:4:6A,DEGAc (6:4:6gedBGE | %49
 [B,B]4 (6:4:6bgedBG |[K:bass]"^dolce"!mf! E,,8- | E,,8 | B,,8- | B,,8 | C,8- | C,8 | D,,8- | %57
 D,,8 | A,8- | A,8 | B,8- | B,8 | C8- | C8 | G,8- | G,8 |!f! A,8 | A,8 | B,8 | B,8 | C8 | C8 | %72
 B,8 | B,8 | A,8 | A,8 | B,8 | B,8 | C8 | C8 | B,8 | B,8 |!ff! A,4 A,4 | B,4 B,4 | C,4 C,4 | %85
 G,,4 G,,4 | A,2 A,2 A,2 A,2 | B,2 B,2 B,2 B,2 | C,2 C,2 C,2 C,2 | G,,2 G,,2 G,,2 G,,2 | %90
 A,2 A,2 A,2 A,2 | B,2 B,2 B,2 B,2 | C,2 C,2 G,,2 G,,2 | G,,2 G,,2 G,,2 G,,2 | %94
 [A,,A,]2 [A,,A,]2 [B,,B,]2 [B,,B,]2 | [C,C]2 [C,C]2 [G,,G,]2 [G,,G,]2 | %96
 [C,C]2 [C,C]2 [B,,B,]2 [B,,B,]2 | [F,,F,]2 [F,,F,]2 [E,,E,]2 [E,,E,]2 | %98
 [A,,A,]2 [A,,A,]2 [B,,B,]2 [B,,B,]2 | [C,C]2 [C,C]2 [G,,G,]2 [G,,G,]2 | %100
 [C,C]2 [C,C]2 [G,,A,]2 [G,,A,]2 | [B,,B,]4 [B,,B,]4 | [A,,A,]4 [B,,B,]4 | [C,C]4 [G,,G,]4 | %104
 [C,C]4 [B,,B,]4 | [F,,F,]4 [E,,E,]4 | [A,,A,]4 [B,,B,]4 | [C,C]4 [G,,G,]4 | [C,C]4 [G,,A,]4 | %109
 [B,,B,]4 [B,,B,]4 | [G,,G,]4 [A,,A,]4 | [B,,B,]4 [C,C]4 | [G,,G,]4 [B,,B,]4 | [F,,F,]4 [E,,E,]4 | %114
 [G,,G,]4 [A,,A,]4 | [B,,B,]4 [C,C]4 | [G,,G,]4 [G,,A,]4 | [B,,B,]8 | E4 E4 | E4 E4 | %120
"^rit." E4 E4 | E8!ped-up! |] %122

